X: 64
T:Flitch of Bacon
R:Jig
S:Krassen's O'Neill
M:6/8
L:1/8
Q:3/8=120
K:G
|:DGG ~B3|cAG FGA|DGG ~B3|cAF ~G3|
DGG ~B3|cAG FGA|fed ~f3|cAF|G3:|
def ~g3|fed g2B|def ~g3|fed cAF|
def ~g3|fed g2B|fed ~f3|cAF ~G3:|
